X:1
T:Richmond is a Hard Road to Travel
M:2/4
L:1/8
K:D
 AA| d3/2 d/2 dd| c2 AA| d3/2 d/2 dd| c2 AA| dd dd| dB ed| cA z2| AA|\
 d3/2 d/2 dd| c2 A2| BB BB| A2 FF| GG GG| EE AA| FD z2| z2 A2| d3/2 d/2 dd|\
 c2 A2| d3/2 d/2 dd| c2 AA| dd dd| dB ed| cA z2| z2 A2| d3/2 d/2 dd|\
 c2 AA| B3/2 B/2 BB| A2 F2| GG GG| E2 AA| FD z2| z2 z A| D D2 E| F2 A2|\
G-F GB| A2 z A| DC DE| F2 AF| GE z2| z2 z A| D D2 E| F2 A2|G-F GB|\
 d3 d| cA AA| A2 AB| AF EF| D2 z2|
